src/lib/packages/icons/src/assets/line/home-dash-trend-up.svg

<svg width="24" height="24" viewBox="0 0 24 24" fill="none" xmlns="http://www.w3.org/2000/svg">
<path d="M20.747 8.48299L14.065 2.98994C12.868 2.00694 11.131 2.00594 9.93401 2.98994L3.25201 8.48299C2.48201 9.11599 2.11502 10.1189 2.29302 11.0999L3.7481 19.083C4.0301 20.628 5.3751 21.75 6.9461 21.75H17.0511C18.6221 21.75 19.9671 20.628 20.2491 19.083L21.704 11.0999C21.884 10.1189 21.517 9.11599 20.747 8.48299ZM20.2291 10.831L18.7741 18.8139C18.6231 19.6459 17.8981 20.25 17.0521 20.25H6.94707C6.10107 20.25 5.37703 19.6459 5.22503 18.8139L3.77007 10.832C3.68807 10.386 3.85511 9.92992 4.20611 9.64192L10.888 4.149C11.21 3.884 11.6051 3.75191 12.0001 3.75191C12.3951 3.75191 12.7901 3.88498 13.1121 4.14998L19.794 9.6429C20.144 9.9299 20.3111 10.385 20.2291 10.831ZM16.6921 11.045C16.7301 11.137 16.7501 11.234 16.7501 11.332V13.832C16.7501 14.246 16.4141 14.582 16.0001 14.582C15.5861 14.582 15.2501 14.246 15.2501 13.832V13.1419L13.6911 14.6999C13.1481 15.2439 12.198 15.2439 11.653 14.6999L10.4741 13.521L8.53008 15.5479C8.38408 15.6939 8.19205 15.7679 8.00005 15.7679C7.80805 15.7679 7.61602 15.6949 7.47002 15.5479C7.17702 15.2549 7.17702 14.78 7.47002 14.487L9.497 12.4599C10.041 11.9159 10.9921 11.9159 11.5361 12.4599L12.714 13.6379L14.2271 12.0799H13.5001C13.0861 12.0799 12.7501 11.7439 12.7501 11.3299C12.7501 10.9159 13.0861 10.5799 13.5001 10.5799H16.0001C16.0981 10.5799 16.195 10.5999 16.287 10.6379C16.47 10.7159 16.6161 10.862 16.6921 11.045Z" fill="currentColor"/>
</svg>

<svg xmlns="http://www.w3.org/2000/svg" width="24" height="24" fill="none"><path fill="currentColor" d="M20.747 8.483 14.065 2.99a3.26 3.26 0 0 0-4.131 0L3.252 8.483a2.753 2.753 0 0 0-.959 2.617l1.455 7.983a3.25 3.25 0 0 0 3.198 2.667h10.105a3.25 3.25 0 0 0 3.198-2.667l1.455-7.983a2.748 2.748 0 0 0-.957-2.617Zm-.518 2.348-1.455 7.983a1.75 1.75 0 0 1-1.722 1.436H6.947a1.75 1.75 0 0 1-1.722-1.436L3.77 10.832a1.248 1.248 0 0 1 .436-1.19l6.682-5.493A1.747 1.747 0 0 1 12 3.752c.395 0 .79.133 1.112.398l6.682 5.493c.35.287.517.742.435 1.188Zm-3.537.214a.75.75 0 0 1 .058.287v2.5a.75.75 0 0 1-1.5 0v-.69L13.691 14.7c-.543.544-1.493.544-2.038 0l-1.179-1.179-1.944 2.027a.748.748 0 0 1-1.06 0 .75.75 0 0 1 0-1.061l2.027-2.027c.544-.544 1.495-.544 2.04 0l1.177 1.178 1.513-1.558H13.5a.75.75 0 0 1 0-1.5H16a.75.75 0 0 1 .692.465Z"/></svg>
